icons/svelteconfig.svg

<svg width="16" height="16" viewBox="0 0 16 16" fill="none" xmlns="http://www.w3.org/2000/svg">
<path fill-rule="evenodd" clip-rule="evenodd" d="M4 2C2.89543 2 2 2.89543 2 4V12C2 13.1046 2.89543 14 4 14H12C13.1046 14 14 13.1046 14 12V4C14 2.89543 13.1046 2 12 2H4ZM9.14933 4.1334H9.06115C8.92609 4.13998 8.79191 4.15951 8.66032 4.19173C8.4998 4.24359 8.34626 4.31639 8.20337 4.4084L5.95871 5.8917C5.77672 6.01037 5.62065 6.16732 5.50053 6.35246C5.38041 6.5376 5.29891 6.74683 5.26126 6.96669C5.22229 7.19002 5.22631 7.41917 5.2731 7.64088C5.31988 7.86259 5.4085 8.07246 5.53383 8.25833C5.69401 8.5115 5.91156 8.71989 6.16736 8.8652C6.42316 9.0105 6.70939 9.08826 7.00087 9.09165C7.14969 9.09274 7.29798 9.07312 7.44179 9.03332C7.60401 8.99439 7.75858 8.92674 7.89874 8.83332L8.75652 8.20833L8.8928 8.15H9.0371C9.12391 8.15024 9.20937 8.17236 9.28616 8.21444C9.36295 8.25653 9.42878 8.31734 9.47801 8.39166C9.55266 8.50643 9.58141 8.6469 9.55818 8.78332C9.54513 8.84879 9.51916 8.91074 9.4819 8.96525C9.44465 9.01975 9.39692 9.06563 9.34173 9.09998L7.12914 10.6L6.98484 10.6583C6.94244 10.6664 6.89897 10.6664 6.85657 10.6583C6.76877 10.6573 6.68241 10.635 6.60444 10.593C6.52647 10.551 6.45906 10.4906 6.40764 10.4166C6.29446 10.312 6.22536 10.1654 6.21524 10.0083V9.92497H6.13508C5.81903 9.82326 5.52115 9.66843 5.25325 9.46664L5.14101 9.38331V9.51664L5.09291 9.7333C5.08538 9.82202 5.08538 9.91125 5.09291 9.99996V10.0666C5.09507 10.414 5.20158 10.7519 5.39754 11.0333C5.55696 11.2853 5.77324 11.493 6.02754 11.6382C6.28184 11.7834 6.56645 11.8619 6.85657 11.8666C7.00842 11.8655 7.15944 11.8431 7.3055 11.7999C7.4664 11.7529 7.6202 11.6828 7.76245 11.5916L10.0071 10.1083C10.1891 9.98963 10.3452 9.83268 10.4653 9.64754C10.5854 9.4624 10.6669 9.25317 10.7046 9.03332C10.7424 8.80758 10.7363 8.57626 10.6867 8.35299C10.6372 8.12973 10.5451 7.91903 10.416 7.73334C10.2552 7.4936 10.042 7.29687 9.794 7.15927C9.54596 7.02166 9.2701 6.9471 8.989 6.94169C8.84018 6.94059 8.69189 6.96021 8.54808 7.00002C8.38666 7.04548 8.23265 7.1157 8.09113 7.20835L7.2093 7.775L7.07302 7.85834H6.92872C6.84191 7.85809 6.75645 7.83598 6.67966 7.79389C6.60287 7.7518 6.53704 7.69099 6.48781 7.61667C6.41316 7.5019 6.38441 7.36144 6.40764 7.22501C6.42183 7.15666 6.45088 7.09258 6.49257 7.0377C6.53425 6.98281 6.58747 6.93857 6.64814 6.90835L8.8928 5.40005L9.02908 5.34171H9.17338C9.26006 5.34265 9.34528 5.36506 9.42197 5.40709C9.49865 5.44912 9.56458 5.50955 9.6143 5.58338C9.68202 5.69204 9.71304 5.82103 9.70248 5.95004V6.03337H9.78264C10.0987 6.13508 10.3966 6.2899 10.6645 6.49169L10.7767 6.57503L10.8168 6.44169C10.8402 6.36805 10.859 6.29289 10.8729 6.2167C10.8808 6.12522 10.8808 6.03318 10.8729 5.9417C10.8724 5.59151 10.7658 5.25038 10.5683 4.96672C10.4122 4.72087 10.2022 4.51709 9.95547 4.37221C9.70876 4.22732 9.43245 4.14547 9.14933 4.1334ZM7.56204 3.44175C8.00516 3.14914 8.52015 2.99577 9.04511 3.00009C9.52492 3.00146 9.99741 3.1225 10.4229 3.35306C10.8483 3.58362 11.2144 3.91696 11.4902 4.32507C11.7034 4.63381 11.8544 4.98409 11.9343 5.35495C12.0142 5.7258 12.0213 6.10959 11.9552 6.48336C11.8918 6.83986 11.761 7.17974 11.5704 7.48334C11.8526 8.0347 11.9459 8.6695 11.8349 9.28331C11.7745 9.64955 11.6405 9.99842 11.4416 10.3071C11.2427 10.6159 10.9833 10.8775 10.6805 11.0749L8.43585 12.5583C7.99272 12.8509 7.47773 13.0042 6.95277 12.9999C6.47296 12.9985 6.00048 12.8775 5.57501 12.6469C5.14954 12.4164 4.78352 12.083 4.5077 11.6749C4.29639 11.3668 4.14641 11.0179 4.06656 10.6487C3.98672 10.2795 3.97862 9.89747 4.04273 9.52497C4.10245 9.16738 4.23353 8.82675 4.42753 8.52499C4.14467 7.97083 4.05139 7.3332 4.16298 6.71669C4.22489 6.35211 4.3596 6.00506 4.55843 5.69791C4.75726 5.39076 5.0158 5.13032 5.31738 4.93339L7.56204 3.44175Z" fill="#FF3E00"/>
</svg>

<svg xmlns="http://www.w3.org/2000/svg" width="16" height="16" fill="none"><path fill="#FF3E00" fill-rule="evenodd" d="M4 2a2 2 0 0 0-2 2v8a2 2 0 0 0 2 2h8a2 2 0 0 0 2-2V4a2 2 0 0 0-2-2H4Zm5.15 2.133H9.06c-.135.007-.27.027-.4.059-.161.052-.315.124-.458.216L5.96 5.892a1.568 1.568 0 0 0-.458.46c-.12.186-.202.395-.24.615a1.783 1.783 0 0 0 .273 1.291c.16.254.378.462.633.607.256.146.542.223.834.227.149 0 .297-.019.44-.059.163-.039.318-.106.458-.2l.858-.625.136-.058h.144a.52.52 0 0 1 .25.064.545.545 0 0 1 .271.57.493.493 0 0 1-.216.316l-2.213 1.5-.144.058a.342.342 0 0 1-.128 0 .544.544 0 0 1-.45-.241.61.61 0 0 1-.192-.409v-.083h-.08a2.987 2.987 0 0 1-.882-.458l-.112-.084v.134l-.048.216a1.577 1.577 0 0 0 0 .267v.067c.002.347.109.685.305.966.159.252.375.46.63.605.254.145.538.224.829.229.151-.002.302-.024.449-.067.16-.047.314-.117.456-.208l2.245-1.484c.182-.118.338-.275.458-.46.12-.186.202-.395.24-.615a1.782 1.782 0 0 0-.289-1.3 1.805 1.805 0 0 0-.622-.574 1.727 1.727 0 0 0-.805-.217 1.608 1.608 0 0 0-.898.266l-.882.567-.136.083h-.144a.52.52 0 0 1-.25-.064.545.545 0 0 1-.271-.569.466.466 0 0 1 .24-.317L8.893 5.4l.136-.058h.144c.087 0 .172.023.249.065a.552.552 0 0 1 .192.176.601.601 0 0 1 .088.367v.083h.08c.317.102.615.257.883.459l.112.083.04-.133c.023-.074.042-.15.056-.225a1.598 1.598 0 0 0 0-.275c0-.35-.107-.692-.305-.975a1.818 1.818 0 0 0-.613-.595 1.737 1.737 0 0 0-.806-.239Zm-1.588-.691A2.65 2.65 0 0 1 9.045 3c.48.001.952.123 1.378.353.425.23.791.564 1.067.972.213.309.364.66.444 1.03.08.37.087.755.021 1.128a2.805 2.805 0 0 1-.385 1c.283.552.376 1.186.265 1.8-.06.367-.195.715-.393 1.024-.2.309-.459.57-.761.768l-2.245 1.483A2.65 2.65 0 0 1 6.953 13a2.907 2.907 0 0 1-1.378-.353 3.037 3.037 0 0 1-1.508-1.998 2.952 2.952 0 0 1-.024-1.124c.06-.358.19-.698.385-1a2.863 2.863 0 0 1-.265-1.808 2.71 2.71 0 0 1 .395-1.02c.2-.306.458-.567.76-.764l2.244-1.491Z" clip-rule="evenodd"/></svg>
